ui/StatusQ/src/assets/img/icons/xtwitter.svg

<svg fill="none" height="18" viewBox="0 0 18 18" width="18" xmlns="http://www.w3.org/2000/svg"><path clip-rule="evenodd" d="m6.82709 9.1234-6.49335-8.06871h5.14319l4.0083 4.98701 4.28227-4.96456h2.8326l-5.7453 6.66856 6.8123 8.4757h-5.1279l-4.34013-5.3932-4.63356 5.3782h-2.847949zm6.45951 5.603-9.79923-12.17672h1.24156l9.78697 12.17672z" fill="#1c1c1c" fill-rule="evenodd"/></svg>

<svg width="18" height="18" viewBox="0 0 18 18" fill="none" xmlns="http://www.w3.org/2000/svg">
<path fill-rule="evenodd" clip-rule="evenodd" d="M6.82709 9.1234L0.33374 1.05469H5.47693L9.48523 6.0417L13.7675 1.07714H16.6001L10.8548 7.7457L17.6671 16.2214H12.5392L8.19907 10.8282L3.56551 16.2064H0.717561L6.82709 9.1234ZM13.2866 14.7264L3.48737 2.54968H4.72893L14.5159 14.7264H13.2866Z" fill="#1C1C1C"/>
</svg>
